packages/icons/src/finger-up-fill.svg

<svg xmlns="http://www.w3.org/2000/svg" width="24" height="24" fill="none" viewBox="0 0 24 24">
  <path fill="#000" d="m19.98 14.82-.63 4.46c-.14.99-.99 1.72-1.98 1.72h-6.16c-.53 0-1.29-.21-1.66-.59L5 15.62l.83-.84c.24-.24.58-.35.92-.28l3.25.74V4.5c0-.83.67-1.5 1.5-1.5s1.5.67 1.5 1.5v6h.91c.31 0 .62.07.89.21l4.09 2.04c.77.39 1.21 1.22 1.09 2.07Z"/>
</svg>

<svg width="24" height="24" viewBox="0 0 24 24" fill="none" xmlns="http://www.w3.org/2000/svg">
<path d="M19.98 14.82L19.35 19.28C19.21 20.27 18.36 21 17.37 21H11.21C10.68 21 9.92 20.79 9.55 20.41L5 15.62L5.83 14.78C6.07 14.54 6.41 14.43 6.75 14.5L10 15.24V4.5C10 3.67 10.67 3 11.5 3C12.33 3 13 3.67 13 4.5V10.5H13.91C14.22 10.5 14.53 10.57 14.8 10.71L18.89 12.75C19.66 13.14 20.1 13.97 19.98 14.82Z" fill="black"/>
</svg>
